svg/fluentui-system-icons/ic_fluent_split_hint_20_regular.svg

<svg width="20" height="20" viewBox="0 0 20 20" fill="none" xmlns="http://www.w3.org/2000/svg">
<path d="M9.5 2C9.77614 2 10 2.22386 10 2.5V17.5C10 17.7761 9.77614 18 9.5 18C9.22386 18 9 17.7761 9 17.5V2.5C9 2.22386 9.22386 2 9.5 2ZM2 6C2 4.89543 2.89543 4 4 4H8V5H4C3.44772 5 3 5.44772 3 6V14C3 14.5523 3.44772 15 4 15H8V16H4C2.89543 16 2 15.1046 2 14V6ZM15 5C15.5523 5 16 5.44772 16 6V6.5C16 6.77614 16.2239 7 16.5 7C16.7761 7 17 6.77614 17 6.5V6C17 4.89543 16.1046 4 15 4H14.5C14.2239 4 14 4.22386 14 4.5C14 4.77614 14.2239 5 14.5 5H15ZM15 15C15.5523 15 16 14.5523 16 14V13.5C16 13.2239 16.2239 13 16.5 13C16.7761 13 17 13.2239 17 13.5V14C17 15.1046 16.1046 16 15 16H14.5C14.2239 16 14 15.7761 14 15.5C14 15.2239 14.2239 15 14.5 15H15ZM16.5 8C16.2239 8 16 8.22386 16 8.5V11.5C16 11.7761 16.2239 12 16.5 12C16.7761 12 17 11.7761 17 11.5V8.5C17 8.22386 16.7761 8 16.5 8ZM12.5 4C12.7761 4 13 4.22386 13 4.5C13 4.77614 12.7761 5 12.5 5H11.5C11.2239 5 11 4.77614 11 4.5C11 4.22386 11.2239 4 11.5 4H12.5ZM13 15.5C13 15.2239 12.7761 15 12.5 15H11.5C11.2239 15 11 15.2239 11 15.5C11 15.7761 11.2239 16 11.5 16H12.5C12.7761 16 13 15.7761 13 15.5Z" fill="#212121"/>
</svg>

<svg xmlns="http://www.w3.org/2000/svg" width="20" height="20"><path d="M9.5 2a.5.5 0 0 1 .5.5v15a.5.5 0 0 1-1 0v-15a.5.5 0 0 1 .5-.5ZM2 6a2 2 0 0 1 2-2h4v1H4a1 1 0 0 0-1 1v8a1 1 0 0 0 1 1h4v1H4a2 2 0 0 1-2-2V6Zm13-1a1 1 0 0 1 1 1v.5a.5.5 0 0 0 1 0V6a2 2 0 0 0-2-2h-.5a.5.5 0 0 0 0 1h.5Zm0 10a1 1 0 0 0 1-1v-.5a.5.5 0 0 1 1 0v.5a2 2 0 0 1-2 2h-.5a.5.5 0 0 1 0-1h.5Zm1.5-7a.5.5 0 0 0-.5.5v3a.5.5 0 0 0 1 0v-3a.5.5 0 0 0-.5-.5Zm-4-4a.5.5 0 0 1 0 1h-1a.5.5 0 0 1 0-1h1Zm.5 11.5a.5.5 0 0 0-.5-.5h-1a.5.5 0 0 0 0 1h1a.5.5 0 0 0 .5-.5Z"/></svg>
